images/50872750.svg

<?xml version="1.0" encoding="UTF-8"?>
<svg xmlns="http://www.w3.org/2000/svg" xmlns:xlink="http://www.w3.org/1999/xlink" width="300pt" height="300pt" viewBox="0 0 300 300" version="1.1">
<defs>
<g>
<symbol overflow="visible" id="glyph0-0">
<path style="stroke:none;" d="M 0.453125 1.59375 L 0.453125 -6.34375 L 4.953125 -6.34375 L 4.953125 1.59375 Z M 0.953125 1.09375 L 4.453125 1.09375 L 4.453125 -5.84375 L 0.953125 -5.84375 Z M 0.953125 1.09375 "/>
</symbol>
<symbol overflow="visible" id="glyph0-1">
<path style="stroke:none;" d="M 4.8125 -6.34375 L 4.8125 -5.484375 C 4.476562 -5.640625 4.160156 -5.753906 3.859375 -5.828125 C 3.566406 -5.910156 3.28125 -5.953125 3 -5.953125 C 2.507812 -5.953125 2.132812 -5.859375 1.875 -5.671875 C 1.613281 -5.484375 1.484375 -5.21875 1.484375 -4.875 C 1.484375 -4.582031 1.570312 -4.363281 1.75 -4.21875 C 1.925781 -4.070312 2.253906 -3.953125 2.734375 -3.859375 L 3.28125 -3.75 C 3.9375 -3.625 4.421875 -3.398438 4.734375 -3.078125 C 5.054688 -2.765625 5.21875 -2.34375 5.21875 -1.8125 C 5.21875 -1.175781 5.003906 -0.691406 4.578125 -0.359375 C 4.148438 -0.0351562 3.523438 0.125 2.703125 0.125 C 2.390625 0.125 2.054688 0.0859375 1.703125 0.015625 C 1.359375 -0.046875 1 -0.148438 0.625 -0.296875 L 0.625 -1.203125 C 0.976562 -1.003906 1.328125 -0.851562 1.671875 -0.75 C 2.023438 -0.644531 2.367188 -0.59375 2.703125 -0.59375 C 3.203125 -0.59375 3.585938 -0.691406 3.859375 -0.890625 C 4.140625 -1.085938 4.28125 -1.375 4.28125 -1.75 C 4.28125 -2.070312 4.179688 -2.320312 3.984375 -2.5 C 3.785156 -2.675781 3.460938 -2.8125 3.015625 -2.90625 L 2.46875 -3.015625 C 1.8125 -3.148438 1.332031 -3.359375 1.03125 -3.640625 C 0.738281 -3.921875 0.59375 -4.3125 0.59375 -4.8125 C 0.59375 -5.382812 0.796875 -5.835938 1.203125 -6.171875 C 1.609375 -6.515625 2.171875 -6.6875 2.890625 -6.6875 C 3.203125 -6.6875 3.515625 -6.65625 3.828125 -6.59375 C 4.148438 -6.539062 4.476562 -6.457031 4.8125 -6.34375 Z M 4.8125 -6.34375 "/>
</symbol>
<symbol overflow="visible" id="glyph0-2">
<path style="stroke:none;" d="M 0.890625 -6.5625 L 2.078125 -6.5625 L 4.984375 -1.078125 L 4.984375 -6.5625 L 5.84375 -6.5625 L 5.84375 0 L 4.65625 0 L 1.75 -5.484375 L 1.75 0 L 0.890625 0 Z M 0.890625 -6.5625 "/>
</symbol>
<symbol overflow="visible" id="glyph0-3">
<path style="stroke:none;" d="M 0.890625 -6.5625 L 1.765625 -6.5625 L 1.765625 -3.875 L 5 -3.875 L 5 -6.5625 L 5.890625 -6.5625 L 5.890625 0 L 5 0 L 5 -3.125 L 1.765625 -3.125 L 1.765625 0 L 0.890625 0 Z M 0.890625 -6.5625 "/>
</symbol>
<symbol overflow="visible" id="glyph0-4">
<path style="stroke:none;" d="M 0.890625 -6.5625 L 4.65625 -6.5625 L 4.65625 -5.8125 L 1.765625 -5.8125 L 1.765625 -3.875 L 4.375 -3.875 L 4.375 -3.140625 L 1.765625 -3.140625 L 1.765625 0 L 0.890625 0 Z M 0.890625 -6.5625 "/>
</symbol>
</g>
</defs>
<g id="surface19157">
<rect x="0" y="0" width="300" height="300" style="fill:rgb(100%,100%,100%);fill-opacity:1;stroke:none;"/>
<path style="fill:none;stroke-width:1.2;stroke-linecap:butt;stroke-linejoin:miter;stroke:rgb(80%,80%,0%);stroke-opacity:1;stroke-miterlimit:10;" d="M 51.679688 148.660156 L 43.464844 139.960938 "/>
<path style="fill:none;stroke-width:1.2;stroke-linecap:butt;stroke-linejoin:miter;stroke:rgb(0%,0%,0%);stroke-opacity:1;stroke-miterlimit:10;" d="M 43.464844 139.960938 L 35.25 131.257812 "/>
<path style="fill:none;stroke-width:1.2;stroke-linecap:butt;stroke-linejoin:miter;stroke:rgb(80%,80%,0%);stroke-opacity:1;stroke-miterlimit:10;" d="M 51.679688 148.660156 L 63.324219 145.898438 "/>
<path style="fill:none;stroke-width:1.2;stroke-linecap:butt;stroke-linejoin:miter;stroke:rgb(0%,0%,0%);stroke-opacity:1;stroke-miterlimit:10;" d="M 63.324219 145.898438 L 74.964844 143.132812 "/>
<path style=" stroke:none;fill-rule:nonzero;fill:rgb(100%,100%,100%);fill-opacity:1;" d="M 48.679688 143.160156 L 54.679688 143.160156 L 54.679688 154.160156 L 48.679688 154.160156 Z M 48.679688 143.160156 "/>
<g style="fill:rgb(80%,80%,0%);fill-opacity:1;">
  <use xlink:href="#glyph0-1" x="48.679688" y="151.823242"/>
</g>
<path style="fill:none;stroke-width:1.2;stroke-linecap:butt;stroke-linejoin:miter;stroke:rgb(0%,0%,0%);stroke-opacity:1;stroke-miterlimit:10;" d="M 74.964844 143.132812 L 84.042969 150.929688 "/>
<path style="fill:none;stroke-width:1.2;stroke-linecap:butt;stroke-linejoin:miter;stroke:rgb(0%,0%,100%);stroke-opacity:1;stroke-miterlimit:10;" d="M 84.042969 150.929688 L 93.125 158.722656 "/>
<path style="fill:none;stroke-width:1.2;stroke-linecap:butt;stroke-linejoin:miter;stroke:rgb(0%,0%,100%);stroke-opacity:1;stroke-miterlimit:10;" d="M 84.179688 121.046875 L 79.574219 132.089844 "/>
<path style="fill:none;stroke-width:1.2;stroke-linecap:butt;stroke-linejoin:miter;stroke:rgb(0%,0%,0%);stroke-opacity:1;stroke-miterlimit:10;" d="M 79.574219 132.089844 L 74.964844 143.132812 "/>
<path style="fill:none;stroke-width:1.2;stroke-linecap:butt;stroke-linejoin:miter;stroke:rgb(0%,0%,100%);stroke-opacity:1;stroke-miterlimit:10;" d="M 88.457031 125.425781 L 84.769531 134.257812 "/>
<path style="fill:none;stroke-width:1.2;stroke-linecap:butt;stroke-linejoin:miter;stroke:rgb(0%,0%,0%);stroke-opacity:1;stroke-miterlimit:10;" d="M 84.769531 134.257812 L 81.085938 143.09375 "/>
<path style="fill:none;stroke-width:1.2;stroke-linecap:butt;stroke-linejoin:miter;stroke:rgb(0%,0%,100%);stroke-opacity:1;stroke-miterlimit:10;" d="M 93.125 158.722656 L 103.34375 152.5 "/>
<path style="fill:none;stroke-width:1.2;stroke-linecap:butt;stroke-linejoin:miter;stroke:rgb(0%,0%,0%);stroke-opacity:1;stroke-miterlimit:10;" d="M 103.34375 152.5 L 113.5625 146.273438 "/>
<path style=" stroke:none;fill-rule:nonzero;fill:rgb(100%,100%,100%);fill-opacity:1;" d="M 86.125 153.222656 L 100.125 153.222656 L 100.125 164.222656 L 86.125 164.222656 Z M 86.125 153.222656 "/>
<g style="fill:rgb(0%,0%,100%);fill-opacity:1;">
  <use xlink:href="#glyph0-2" x="86.125" y="161.885742"/>
  <use xlink:href="#glyph0-3" x="93.102539" y="161.885742"/>
</g>
<path style="fill:none;stroke-width:1.2;stroke-linecap:butt;stroke-linejoin:miter;stroke:rgb(0%,0%,0%);stroke-opacity:1;stroke-miterlimit:10;" d="M 113.5625 146.273438 L 108.035156 122.984375 "/>
<path style="fill:none;stroke-width:1.2;stroke-linecap:butt;stroke-linejoin:miter;stroke:rgb(0%,0%,0%);stroke-opacity:1;stroke-miterlimit:10;" d="M 107.53125 145.242188 L 103.109375 126.613281 "/>
<path style="fill:none;stroke-width:1.2;stroke-linecap:butt;stroke-linejoin:miter;stroke:rgb(0%,0%,0%);stroke-opacity:1;stroke-miterlimit:10;" d="M 113.5625 146.273438 L 135.648438 155.488281 "/>
<path style="fill:none;stroke-width:1.2;stroke-linecap:butt;stroke-linejoin:miter;stroke:rgb(0%,0%,0%);stroke-opacity:1;stroke-miterlimit:10;" d="M 108.035156 122.984375 L 96.109375 122.015625 "/>
<path style="fill:none;stroke-width:1.2;stroke-linecap:butt;stroke-linejoin:miter;stroke:rgb(0%,0%,100%);stroke-opacity:1;stroke-miterlimit:10;" d="M 96.109375 122.015625 L 84.179688 121.046875 "/>
<path style="fill:none;stroke-width:1.2;stroke-linecap:butt;stroke-linejoin:miter;stroke:rgb(0%,0%,0%);stroke-opacity:1;stroke-miterlimit:10;" d="M 108.035156 122.984375 L 123.625 104.828125 "/>
<path style=" stroke:none;fill-rule:nonzero;fill:rgb(100%,100%,100%);fill-opacity:1;" d="M 81.179688 115.546875 L 88.179688 115.546875 L 88.179688 126.546875 L 81.179688 126.546875 Z M 81.179688 115.546875 "/>
<g style="fill:rgb(0%,0%,100%);fill-opacity:1;">
  <use xlink:href="#glyph0-2" x="81.179688" y="124.209961"/>
</g>
<path style="fill:none;stroke-width:1.2;stroke-linecap:butt;stroke-linejoin:miter;stroke:rgb(0%,0%,0%);stroke-opacity:1;stroke-miterlimit:10;" d="M 123.625 104.828125 L 147.144531 109.25 "/>
<path style="fill:none;stroke-width:1.2;stroke-linecap:butt;stroke-linejoin:miter;stroke:rgb(0%,0%,0%);stroke-opacity:1;stroke-miterlimit:10;" d="M 127.019531 99.734375 L 145.835938 103.273438 "/>
<path style="fill:none;stroke-width:1.2;stroke-linecap:butt;stroke-linejoin:miter;stroke:rgb(0%,0%,0%);stroke-opacity:1;stroke-miterlimit:10;" d="M 115.695312 82.246094 L 123.625 104.828125 "/>
<path style="fill:none;stroke-width:1.2;stroke-linecap:butt;stroke-linejoin:miter;stroke:rgb(0%,0%,0%);stroke-opacity:1;stroke-miterlimit:10;" d="M 147.144531 109.25 L 162.734375 91.089844 "/>
<path style="fill:none;stroke-width:1.2;stroke-linecap:butt;stroke-linejoin:miter;stroke:rgb(0%,0%,0%);stroke-opacity:1;stroke-miterlimit:10;" d="M 162.734375 91.089844 L 158.769531 79.800781 "/>
<path style="fill:none;stroke-width:1.2;stroke-linecap:butt;stroke-linejoin:miter;stroke:rgb(0%,0%,100%);stroke-opacity:1;stroke-miterlimit:10;" d="M 158.769531 79.800781 L 154.804688 68.511719 "/>
<path style="fill:none;stroke-width:1.2;stroke-linecap:butt;stroke-linejoin:miter;stroke:rgb(0%,0%,0%);stroke-opacity:1;stroke-miterlimit:10;" d="M 156.628906 90.699219 L 153.457031 81.667969 "/>
<path style="fill:none;stroke-width:1.2;stroke-linecap:butt;stroke-linejoin:miter;stroke:rgb(0%,0%,100%);stroke-opacity:1;stroke-miterlimit:10;" d="M 153.457031 81.667969 L 150.285156 72.632812 "/>
<path style="fill:none;stroke-width:1.2;stroke-linecap:butt;stroke-linejoin:miter;stroke:rgb(0%,0%,0%);stroke-opacity:1;stroke-miterlimit:10;" d="M 162.734375 91.089844 L 174.496094 93.300781 "/>
<path style="fill:none;stroke-width:1.2;stroke-linecap:butt;stroke-linejoin:miter;stroke:rgb(0%,0%,100%);stroke-opacity:1;stroke-miterlimit:10;" d="M 174.496094 93.300781 L 186.257812 95.511719 "/>
<path style="fill:none;stroke-width:1.2;stroke-linecap:butt;stroke-linejoin:miter;stroke:rgb(0%,0%,100%);stroke-opacity:1;stroke-miterlimit:10;" d="M 154.804688 68.511719 L 143.042969 66.300781 "/>
<path style="fill:none;stroke-width:1.2;stroke-linecap:butt;stroke-linejoin:miter;stroke:rgb(0%,0%,0%);stroke-opacity:1;stroke-miterlimit:10;" d="M 143.042969 66.300781 L 131.285156 64.089844 "/>
<path style=" stroke:none;fill-rule:nonzero;fill:rgb(100%,100%,100%);fill-opacity:1;" d="M 151.804688 63.011719 L 158.804688 63.011719 L 158.804688 74.011719 L 151.804688 74.011719 Z M 151.804688 63.011719 "/>
<g style="fill:rgb(0%,0%,100%);fill-opacity:1;">
  <use xlink:href="#glyph0-2" x="151.804688" y="71.674805"/>
</g>
<path style="fill:none;stroke-width:1.2;stroke-linecap:butt;stroke-linejoin:miter;stroke:rgb(0%,0%,0%);stroke-opacity:1;stroke-miterlimit:10;" d="M 131.285156 64.089844 L 115.695312 82.246094 "/>
<path style="fill:none;stroke-width:1.2;stroke-linecap:butt;stroke-linejoin:miter;stroke:rgb(0%,0%,0%);stroke-opacity:1;stroke-miterlimit:10;" d="M 134 69.574219 L 121.527344 84.097656 "/>
<path style="fill:none;stroke-width:1.2;stroke-linecap:butt;stroke-linejoin:miter;stroke:rgb(0%,0%,100%);stroke-opacity:1;stroke-miterlimit:10;" d="M 186.257812 95.511719 L 190.222656 106.804688 "/>
<path style="fill:none;stroke-width:1.2;stroke-linecap:butt;stroke-linejoin:miter;stroke:rgb(0%,0%,0%);stroke-opacity:1;stroke-miterlimit:10;" d="M 190.222656 106.804688 L 194.1875 118.09375 "/>
<path style=" stroke:none;fill-rule:nonzero;fill:rgb(100%,100%,100%);fill-opacity:1;" d="M 179.257812 90.011719 L 193.257812 90.011719 L 193.257812 101.011719 L 179.257812 101.011719 Z M 179.257812 90.011719 "/>
<g style="fill:rgb(0%,0%,100%);fill-opacity:1;">
  <use xlink:href="#glyph0-2" x="179.257812" y="98.674805"/>
  <use xlink:href="#glyph0-3" x="186.235352" y="98.674805"/>
</g>
<path style="fill:none;stroke-width:1.2;stroke-linecap:butt;stroke-linejoin:miter;stroke:rgb(0%,0%,0%);stroke-opacity:1;stroke-miterlimit:10;" d="M 194.1875 118.09375 L 217.707031 122.515625 "/>
<path style="fill:none;stroke-width:1.2;stroke-linecap:butt;stroke-linejoin:miter;stroke:rgb(0%,0%,0%);stroke-opacity:1;stroke-miterlimit:10;" d="M 217.707031 122.515625 L 225.640625 145.097656 "/>
<path style="fill:none;stroke-width:1.2;stroke-linecap:butt;stroke-linejoin:miter;stroke:rgb(0%,0%,0%);stroke-opacity:1;stroke-miterlimit:10;" d="M 223.816406 122.90625 L 230.160156 140.972656 "/>
<path style="fill:none;stroke-width:1.2;stroke-linecap:butt;stroke-linejoin:miter;stroke:rgb(0%,0%,0%);stroke-opacity:1;stroke-miterlimit:10;" d="M 233.296875 104.355469 L 217.707031 122.515625 "/>
<path style="fill:none;stroke-width:1.2;stroke-linecap:butt;stroke-linejoin:miter;stroke:rgb(0%,0%,0%);stroke-opacity:1;stroke-miterlimit:10;" d="M 225.640625 145.097656 L 249.160156 149.519531 "/>
<path style="fill:none;stroke-width:1.2;stroke-linecap:butt;stroke-linejoin:miter;stroke:rgb(0%,0%,0%);stroke-opacity:1;stroke-miterlimit:10;" d="M 249.160156 149.519531 L 264.75 131.359375 "/>
<path style="fill:none;stroke-width:1.2;stroke-linecap:butt;stroke-linejoin:miter;stroke:rgb(0%,0%,0%);stroke-opacity:1;stroke-miterlimit:10;" d="M 246.445312 144.035156 L 258.917969 129.507812 "/>
<path style="fill:none;stroke-width:1.2;stroke-linecap:butt;stroke-linejoin:miter;stroke:rgb(0%,0%,0%);stroke-opacity:1;stroke-miterlimit:10;" d="M 264.75 131.359375 L 256.820312 108.777344 "/>
<path style="fill:none;stroke-width:1.2;stroke-linecap:butt;stroke-linejoin:miter;stroke:rgb(0%,0%,0%);stroke-opacity:1;stroke-miterlimit:10;" d="M 256.820312 108.777344 L 233.296875 104.355469 "/>
<path style="fill:none;stroke-width:1.2;stroke-linecap:butt;stroke-linejoin:miter;stroke:rgb(0%,0%,0%);stroke-opacity:1;stroke-miterlimit:10;" d="M 253.425781 113.871094 L 234.609375 110.332031 "/>
<path style="fill:none;stroke-width:1.2;stroke-linecap:butt;stroke-linejoin:miter;stroke:rgb(0%,0%,0%);stroke-opacity:1;stroke-miterlimit:10;" d="M 135.648438 155.488281 L 138.710938 179.222656 "/>
<path style="fill:none;stroke-width:1.2;stroke-linecap:butt;stroke-linejoin:miter;stroke:rgb(0%,0%,0%);stroke-opacity:1;stroke-miterlimit:10;" d="M 141.539062 157.140625 L 143.992188 176.128906 "/>
<path style="fill:none;stroke-width:1.2;stroke-linecap:butt;stroke-linejoin:miter;stroke:rgb(0%,0%,0%);stroke-opacity:1;stroke-miterlimit:10;" d="M 154.675781 140.96875 L 135.648438 155.488281 "/>
<path style="fill:none;stroke-width:1.2;stroke-linecap:butt;stroke-linejoin:miter;stroke:rgb(0%,0%,0%);stroke-opacity:1;stroke-miterlimit:10;" d="M 138.710938 179.222656 L 160.800781 188.441406 "/>
<path style="fill:none;stroke-width:1.2;stroke-linecap:butt;stroke-linejoin:miter;stroke:rgb(0%,0%,0%);stroke-opacity:1;stroke-miterlimit:10;" d="M 160.800781 188.441406 L 179.824219 173.917969 "/>
<path style="fill:none;stroke-width:1.2;stroke-linecap:butt;stroke-linejoin:miter;stroke:rgb(0%,0%,0%);stroke-opacity:1;stroke-miterlimit:10;" d="M 159.285156 182.511719 L 174.503906 170.894531 "/>
<path style="fill:none;stroke-width:1.2;stroke-linecap:butt;stroke-linejoin:miter;stroke:rgb(0%,0%,0%);stroke-opacity:1;stroke-miterlimit:10;" d="M 160.800781 188.441406 L 163.863281 212.175781 "/>
<path style="fill:none;stroke-width:1.2;stroke-linecap:butt;stroke-linejoin:miter;stroke:rgb(0%,0%,0%);stroke-opacity:1;stroke-miterlimit:10;" d="M 179.824219 173.917969 L 176.761719 150.183594 "/>
<path style="fill:none;stroke-width:1.2;stroke-linecap:butt;stroke-linejoin:miter;stroke:rgb(0%,0%,0%);stroke-opacity:1;stroke-miterlimit:10;" d="M 176.761719 150.183594 L 154.675781 140.96875 "/>
<path style="fill:none;stroke-width:1.2;stroke-linecap:butt;stroke-linejoin:miter;stroke:rgb(0%,0%,0%);stroke-opacity:1;stroke-miterlimit:10;" d="M 172.382812 154.457031 L 154.714844 147.085938 "/>
<path style="fill:none;stroke-width:1.2;stroke-linecap:butt;stroke-linejoin:miter;stroke:rgb(0%,0%,0%);stroke-opacity:1;stroke-miterlimit:10;" d="M 163.863281 212.175781 L 165.394531 224.042969 "/>
<path style="fill:none;stroke-width:1.2;stroke-linecap:butt;stroke-linejoin:miter;stroke:rgb(20%,80%,80%);stroke-opacity:1;stroke-miterlimit:10;" d="M 165.394531 224.042969 L 166.925781 235.910156 "/>
<path style="fill:none;stroke-width:1.2;stroke-linecap:butt;stroke-linejoin:miter;stroke:rgb(0%,0%,0%);stroke-opacity:1;stroke-miterlimit:10;" d="M 163.863281 212.175781 L 151.996094 213.707031 "/>
<path style="fill:none;stroke-width:1.2;stroke-linecap:butt;stroke-linejoin:miter;stroke:rgb(20%,80%,80%);stroke-opacity:1;stroke-miterlimit:10;" d="M 151.996094 213.707031 L 140.125 215.238281 "/>
<path style="fill:none;stroke-width:1.2;stroke-linecap:butt;stroke-linejoin:miter;stroke:rgb(0%,0%,0%);stroke-opacity:1;stroke-miterlimit:10;" d="M 163.863281 212.175781 L 175.730469 210.644531 "/>
<path style="fill:none;stroke-width:1.2;stroke-linecap:butt;stroke-linejoin:miter;stroke:rgb(20%,80%,80%);stroke-opacity:1;stroke-miterlimit:10;" d="M 175.730469 210.644531 L 187.597656 209.113281 "/>
<path style=" stroke:none;fill-rule:nonzero;fill:rgb(100%,100%,100%);fill-opacity:1;" d="M 163.925781 230.410156 L 169.925781 230.410156 L 169.925781 241.410156 L 163.925781 241.410156 Z M 163.925781 230.410156 "/>
<g style="fill:rgb(20%,80%,80%);fill-opacity:1;">
  <use xlink:href="#glyph0-4" x="163.925781" y="239.073242"/>
</g>
<path style=" stroke:none;fill-rule:nonzero;fill:rgb(100%,100%,100%);fill-opacity:1;" d="M 134.125 209.738281 L 140.125 209.738281 L 140.125 220.738281 L 134.125 220.738281 Z M 134.125 209.738281 "/>
<g style="fill:rgb(20%,80%,80%);fill-opacity:1;">
  <use xlink:href="#glyph0-4" x="134.125" y="218.401367"/>
</g>
<path style=" stroke:none;fill-rule:nonzero;fill:rgb(100%,100%,100%);fill-opacity:1;" d="M 184.597656 203.613281 L 190.597656 203.613281 L 190.597656 214.613281 L 184.597656 214.613281 Z M 184.597656 203.613281 "/>
<g style="fill:rgb(20%,80%,80%);fill-opacity:1;">
  <use xlink:href="#glyph0-4" x="184.597656" y="212.276367"/>
</g>
</g>
</svg>

<svg xmlns="http://www.w3.org/2000/svg" xmlns:xlink="http://www.w3.org/1999/xlink" width="300pt" height="300pt" viewBox="0 0 300 300"><defs><symbol overflow="visible"><path d="M.453 1.594v-7.938h4.5v7.938zm.5-.5h3.5v-6.938h-3.5zm0 0"/></symbol><symbol overflow="visible" id="a"><path d="M4.813-6.344v.86c-.336-.157-.653-.27-.954-.344-.294-.082-.58-.125-.86-.125-.492 0-.867.094-1.125.28-.262.19-.39.454-.39.798 0 .293.085.512.265.656.176.15.504.267.984.36l.547.11c.658.125 1.142.352 1.454.672.32.312.485.734.485 1.265 0 .637-.216 1.122-.642 1.454-.43.325-1.055.485-1.875.485-.312 0-.648-.04-1-.11C1.36-.046 1-.147.625-.296v-.906c.352.2.703.35 1.047.453.35.105.695.156 1.03.156.5 0 .884-.097 1.157-.297.28-.196.42-.485.42-.86 0-.32-.1-.57-.296-.75-.2-.176-.523-.313-.968-.406l-.547-.11C1.81-3.148 1.33-3.36 1.03-3.64.74-3.923.595-4.313.595-4.813c0-.57.203-1.024.61-1.36.405-.344.968-.516 1.687-.516.313 0 .626.032.938.094.32.055.65.137.985.25zm0 0"/></symbol><symbol overflow="visible" id="b"><path d="M.89-6.563H2.08l2.906 5.485v-5.484h.86V0H4.656L1.75-5.484V0H.89zm0 0"/></symbol><symbol overflow="visible" id="c"><path d="M.89-6.563h.876v2.688H5v-2.688h.89V0H5v-3.125H1.766V0H.89zm0 0"/></symbol><symbol overflow="visible" id="d"><path d="M.89-6.563h3.766v.75h-2.89v1.938h2.61v.734h-2.61V0H.89zm0 0"/></symbol></defs><g><path fill="#fff" d="M0 0h300v300H0z"/><path d="M51.68 148.66l-8.215-8.7" stroke-width="1.2" stroke="#cc0" stroke-miterlimit="10" fill="none"/><path d="M43.465 139.96l-8.215-8.702" stroke-width="1.2" stroke="#000" stroke-miterlimit="10" fill="none"/><path d="M51.68 148.66l11.644-2.762" stroke-width="1.2" stroke="#cc0" stroke-miterlimit="10" fill="none"/><path d="M63.324 145.898l11.64-2.765" stroke-width="1.2" stroke="#000" stroke-miterlimit="10" fill="none"/><path d="M48.68 143.16h6v11h-6zm0 0" fill="#fff"/><use xlink:href="#a" x="48.68" y="151.823" fill="#cc0"/><path d="M74.965 143.133l9.078 7.797" stroke-width="1.2" stroke="#000" stroke-miterlimit="10" fill="none"/><path d="M84.043 150.93l9.082 7.793M84.18 121.047l-4.606 11.043" stroke-width="1.2" stroke="#00f" stroke-miterlimit="10" fill="none"/><path d="M79.574 132.09l-4.61 11.043" stroke-width="1.2" stroke="#000" stroke-miterlimit="10" fill="none"/><path d="M88.457 125.426l-3.687 8.832" stroke-width="1.2" stroke="#00f" stroke-miterlimit="10" fill="none"/><path d="M84.77 134.258l-3.684 8.836" stroke-width="1.2" stroke="#000" stroke-miterlimit="10" fill="none"/><path d="M93.125 158.723l10.22-6.223" stroke-width="1.2" stroke="#00f" stroke-miterlimit="10" fill="none"/><path d="M103.344 152.5l10.22-6.227" stroke-width="1.2" stroke="#000" stroke-miterlimit="10" fill="none"/><path d="M86.125 153.223h14v11h-14zm0 0" fill="#fff"/><g fill="#00f"><use xlink:href="#b" x="86.125" y="161.886"/><use xlink:href="#c" x="93.103" y="161.886"/></g><path d="M113.563 146.273l-5.528-23.29M107.53 145.242l-4.42-18.63M113.563 146.273l22.085 9.215M108.035 122.984l-11.926-.968" stroke-width="1.2" stroke="#000" stroke-miterlimit="10" fill="none"/><path d="M96.11 122.016l-11.93-.97" stroke-width="1.2" stroke="#00f" stroke-miterlimit="10" fill="none"/><path d="M108.035 122.984l15.59-18.156" stroke-width="1.2" stroke="#000" stroke-miterlimit="10" fill="none"/><path d="M81.18 115.547h7v11h-7zm0 0" fill="#fff"/><use xlink:href="#b" x="81.18" y="124.21" fill="#00f"/><path d="M123.625 104.828l23.52 4.422M127.02 99.734l18.816 3.54M115.695 82.246l7.93 22.582M147.145 109.25l15.59-18.16M162.734 91.09L158.77 79.8" stroke-width="1.2" stroke="#000" stroke-miterlimit="10" fill="none"/><path d="M158.77 79.8l-3.965-11.288" stroke-width="1.2" stroke="#00f" stroke-miterlimit="10" fill="none"/><path d="M156.63 90.7l-3.173-9.032" stroke-width="1.2" stroke="#000" stroke-miterlimit="10" fill="none"/><path d="M153.457 81.668l-3.172-9.035" stroke-width="1.2" stroke="#00f" stroke-miterlimit="10" fill="none"/><path d="M162.734 91.09l11.762 2.21" stroke-width="1.2" stroke="#000" stroke-miterlimit="10" fill="none"/><path d="M174.496 93.3l11.762 2.212M154.805 68.512l-11.762-2.21" stroke-width="1.2" stroke="#00f" stroke-miterlimit="10" fill="none"/><path d="M143.043 66.3l-11.758-2.21" stroke-width="1.2" stroke="#000" stroke-miterlimit="10" fill="none"/><path d="M151.805 63.012h7v11h-7zm0 0" fill="#fff"/><use xlink:href="#b" x="151.805" y="71.675" fill="#00f"/><path d="M131.285 64.09l-15.59 18.156M134 69.574l-12.473 14.524" stroke-width="1.2" stroke="#000" stroke-miterlimit="10" fill="none"/><path d="M186.258 95.512l3.965 11.293" stroke-width="1.2" stroke="#00f" stroke-miterlimit="10" fill="none"/><path d="M190.223 106.805l3.964 11.29" stroke-width="1.2" stroke="#000" stroke-miterlimit="10" fill="none"/><path d="M179.258 90.012h14v11h-14zm0 0" fill="#fff"/><g fill="#00f"><use xlink:href="#b" x="179.258" y="98.675"/><use xlink:href="#c" x="186.235" y="98.675"/></g><path d="M194.188 118.094l23.52 4.422M217.707 122.516l7.934 22.582M223.816 122.906l6.344 18.067M233.297 104.355l-15.59 18.16M225.64 145.098l23.52 4.422M249.16 149.52l15.59-18.16M246.445 144.035l12.473-14.527M264.75 131.36l-7.93-22.583M256.82 108.777l-23.523-4.422M253.426 113.87l-18.817-3.538M135.648 155.488l3.063 23.735M141.54 157.14l2.452 18.99M154.676 140.97l-19.028 14.518M138.71 179.223l22.09 9.218M160.8 188.44l19.024-14.522M159.285 182.512l15.22-11.617M160.8 188.44l3.063 23.736M179.824 173.918l-3.062-23.734M176.762 150.184l-22.086-9.215M172.383 154.457l-17.668-7.37M163.863 212.176l1.532 11.867" stroke-width="1.2" stroke="#000" stroke-miterlimit="10" fill="none"/><path d="M165.395 224.043l1.53 11.867" stroke-width="1.2" stroke="#3cc" stroke-miterlimit="10" fill="none"/><path d="M163.863 212.176l-11.867 1.53" stroke-width="1.2" stroke="#000" stroke-miterlimit="10" fill="none"/><path d="M151.996 213.707l-11.87 1.53" stroke-width="1.2" stroke="#3cc" stroke-miterlimit="10" fill="none"/><path d="M163.863 212.176l11.867-1.53" stroke-width="1.2" stroke="#000" stroke-miterlimit="10" fill="none"/><path d="M175.73 210.645l11.868-1.532" stroke-width="1.2" stroke="#3cc" stroke-miterlimit="10" fill="none"/><path d="M163.926 230.41h6v11h-6zm0 0" fill="#fff"/><use xlink:href="#d" x="163.926" y="239.073" fill="#3cc"/><path d="M134.125 209.738h6v11h-6zm0 0" fill="#fff"/><use xlink:href="#d" x="134.125" y="218.401" fill="#3cc"/><path d="M184.598 203.613h6v11h-6zm0 0" fill="#fff"/><use xlink:href="#d" x="184.598" y="212.276" fill="#3cc"/></g></svg>
